X:1
T:Umb deinent willen
T:Hporatio Vecchi
T:Source : Canzonette mit 3 Stimmen/ H.Vecchi und G.Capilupi---Nürnberg---P.Kauffmann---1606. Editor : André Vierendeels (19/02/17).
T:-natural
T:Umb deinent willen
T:©
T:©
T:©
C:Hporatio Vecchi
Z:©
%%score [ 1 2 3 ]
L:1/8
Q:1/4=101
M:4/4
K:F
V:1 treble nm="Soprano 1" snm="S 1"
V:2 treble nm="Soprano 2" snm="S 2"
V:3 treble-8 nm="Tenor" snm="T"
V:1
"^1)" d8 | cBcd c2 B2 | A8 | z2 d2 f2 g2 | e2 f2 e4 | d4 z4 | z2 G2 B2 c2 | A2 B2 A4 | G8 :: %9
w: Umb|dei- * * * * nent|willn|brinn ich in|heis- sen flam-|men,|die von Cu-|pi- do ka-|men,|
w: durch|dei- * * * * ne|Red|ausz hold- se-|li- ger Zun-|gen,|bin ich wor-|den be- zwun-|gen,|
[M:3/4] d2 d2 d2 | _e2 e2 d2 | c4 B2 |[M:4/4] A4 A4 | d8 | B2 c2 d4- | d4 d4 | c6 d2 | _e2 d2 c4 | %18
w: auch dei- nent-|we- gen, will|ich Lieb|pfle- gen,|du|bist er- ko-|* ren,|mir für|an- dern al-|
w: dein kla- re|äug- lein, dein|ro- tes|Mûnd- lein,|habn|mir ge- wal-|* tig|mein Hertz|ein- ge- nom-|
 c2 B2 A4- | A4 z2 d2 | c2 B2 A2 G2 | ^F2 G4 F2 | G2 g2 f2 e2 | d2 G2 B2 c2 | d3 c B2 c2- | %25
w: len, sonst ich|_ lasz|mir auff Er- den|kein ge- fal-|len, lasz mir auff|Er- den kein ge-|fal- * * *|
w: men, al- so|_ bin|ich zu dei- ner|gunst ge- kom-|men, al- so bin|ich zu dei- ner|gunst _ _ ge-|
 c2 B2 A4 | =B8 :| %27
w: |len.|
w: * * kom-|men.|
V:2
"^2)""^1)" B8 | AGAB A2 G2 |"^-natural" ^F6 f2 | f3 e d2 e2 | ^c2 d4 c2 | d2 A2 d3 c | %6
w: Umb|dei- * * * * nent|willn brinn|ich in heis- sen|flam- * *|men, die von _|
w: Wun-|dert _ _ _ _ dichs|denn dasz|ich i sol- cher|Lie- * *|be, jetzt mich _|
 BA B2 G2 A2 | ^F2 G4 F2 | G8 ::[M:3/4] B2 A2 =B2 | c2 c2 B2 | A4 G2 |[M:4/4] ^F4 F4 | B8 | %14
w: _ _ _ Cu- pi-|do ka- *|me,,|auch dei- nent-|we- gen will|ich Lieb|pfle- gen,|du|
w: _ _ _ ge- gen|dich ü- *|be,|so will ichs|wa- gen, und|will dirs|sa- gen:|wenn|
 G2 A2 B4- | B4 B4 | A6 B2 | G2 B2 A4 | A2 G2 ^F4- | F2 =F2 G2 G2 | A2 B2 c4- | c2 B2 A4 | %22
w: bist er- ko-|* ren,|mir fûr|an- dern al-|len, sonst ich|_ lasz mir auff|Er- den kein|_ ge- fal-|
w: ich nicht sol-|* te|dir treu|Hertz be- wei-|sen, für- war|_ ich mü- ste|sein von Stahl|_ und Ei-|
 G4 z2 g2 | f2 e2 d2 c2 | B2 A2 G3 A | ^F2 G4 F2 | G8 :| %27
w: len, lasz|mir auf Er- den|kein ge- fal- *||len.|
w: se, für-|war ich mü- ste|sein von Stahl und|Ei- * *|sen.|
V:3
"^3)""^1)" B8 | F6 G2 | D6 d2 | d3 c B2 G2 | A8 | D4 z2 D2 | G3 F _E2 C2 | D8 | G,8 :: %9
w: Umb|dei- nent|willn brinn|ich in heis- sen|flam-|men,, die|von Cu- pi- do|ka-|men|
[M:3/4] G2 ^F2 G2 | C2 C2 D2 | F4 G2 |[M:4/4] D4 D4 | B,8 | _E2 C2 B,4- | B,4 B,4 | F6 D2 | %17
w: auch dei- nent-|we- gen will|ich Lieb|pfle- gen,|du|bist er- ko-|* ren,|mir fûr|
 C2 B,2 F4 |"^-natural" F2 G2 D4- | D2 d2 c2 B2 | A2 G2 F2 _E2 | D8 | G4 z4 | z2 c2 B2 A2 | %24
w: an- dern al-|len, sonst ich|_ lasz mir auff|Er- den kein ge-|fal-|le,|lasz mir auff|
 G2 F2 _E2 C2 | D8 | G8 :| %27
w: Er- den kein ge-|fal-|len.|

